X: 3
T: Shoe The Donkey
R: mazurka
M: 3/4
L: 1/8
K: Gmaj
|: G>A |B>D G>B D>G | B>D G>B D>G | (3BcB (3cdc (3BcB | A4 F>G |
A>D F>A D>F | A>D F>A D>F | (3ABA (3BcB (3ABA | G4 :|
|: B>c |d>G B>d g>f | c2- c>A A>B | c>F A>c e>d | B2- B>G G>A |
(3BcB (3ABA (3BcB | c2- c>B c>e | (3efe d2 F2 |[1 G2- G>A :|[2 G2- G>D |]


Tune 2320	Setting 15695

